Papirus/32x32/apps/touhou-dream-logical-world.svg

<svg xmlns="http://www.w3.org/2000/svg" width="32" height="32" version="1.1">
 <g>
  <path style="opacity:0.2" d="M 4.625,3 C 3.185765,3 2,4.185765 2,5.625 v 22.75 C 2,29.814235 3.185765,31 4.625,31 h 22.75 C 28.814235,31 30,29.814235 30,28.375 V 5.625 C 30,4.185765 28.814235,3 27.375,3 Z M 4.8629863,5.0062929 H 27.137014 c 0.489307,0 0.856693,0.3673861 0.856693,0.8566934 V 28.137014 c 0,0.489307 -0.367386,0.856693 -0.856693,0.856693 H 4.8629863 c -0.4893073,0 -0.8566934,-0.367386 -0.8566934,-0.856693 V 5.8629863 c 0,-0.4893073 0.3673861,-0.8566934 0.8566934,-0.8566934 z"/>
  <path style="fill:#d35cc6" d="M 4.625,2 C 3.185765,2 2,3.185765 2,4.625 v 22.75 C 2,28.814235 3.185765,30 4.625,30 h 22.75 C 28.814235,30 30,28.814235 30,27.375 V 4.625 C 30,3.185765 28.814235,2 27.375,2 Z M 4.8629863,4.0062929 H 27.137014 c 0.489307,0 0.856693,0.3673861 0.856693,0.8566934 V 27.137014 c 0,0.489307 -0.367386,0.856693 -0.856693,0.856693 H 4.8629863 c -0.4893073,0 -0.8566934,-0.367386 -0.8566934,-0.856693 V 4.8629863 c 0,-0.4893073 0.3673861,-0.8566934 0.8566934,-0.8566934 z"/>
  <path style="fill:#ffffff;opacity:0.1" d="M 4.625 2 C 3.1857664 2 2 3.1857664 2 4.625 L 2 5.625 C 2 4.1857664 3.1857664 3 4.625 3 L 27.375 3 C 28.814234 3 30 4.1857664 30 5.625 L 30 4.625 C 30 3.1857664 28.814234 2 27.375 2 L 4.625 2 z M 4.0058594 27.136719 L 4.0058594 28.136719 C 4.0058594 28.626025 4.3739744 28.994141 4.8632812 28.994141 L 27.136719 28.994141 C 27.626025 28.994141 27.994141 28.626025 27.994141 28.136719 L 27.994141 27.136719 C 27.994141 27.626025 27.626025 27.994141 27.136719 27.994141 L 4.8632812 27.994141 C 4.3739744 27.994141 4.0058594 27.626025 4.0058594 27.136719 z"/>
 </g>
 <g>
  <path style="opacity:0.2" d="M 21.28119,13.375679 19.437283,8.9866854 A 0.72159645,0.70818518 0 0 1 20.045408,8.0109223 L 22.877097,7.782972 A 0.13384879,0.13136113 0 0 0 22.95499,7.5537924 L 21.746475,6.5014146 A 5.7497977,5.6429347 0 0 0 18.132851,5.0829063 l -2.330694,-0.080606 a 3.7782871,3.7080656 0 0 0 -3.190346,1.5270054 l -0.04244,0.05736 A 13.58004,13.327648 0 0 0 11.531524,8.2275121 L 10.198627,10.721761 A 10.477141,10.282417 0 0 0 9,15.497495 v 1.107532 A 0.40245256,0.39497276 0 0 0 9.5062033,16.98665 L 20.974693,13.983584 a 0.45971828,0.45117415 0 0 0 0.306497,-0.607905 z"/>
  <path style="fill:#4f4f4f" d="M 21.28119,12.375679 19.437283,7.9866854 A 0.72159645,0.70818518 0 0 1 20.045408,7.0109223 L 22.877097,6.782972 A 0.13384879,0.13136113 0 0 0 22.95499,6.5537924 L 21.746475,5.5014146 A 5.7497977,5.6429347 0 0 0 18.132851,4.0829063 l -2.330694,-0.080606 a 3.7782871,3.7080656 0 0 0 -3.190346,1.5270054 l -0.04244,0.05736 A 13.58004,13.327648 0 0 0 11.531524,7.2275121 L 10.198627,9.7217606 A 10.477141,10.282417 0 0 0 9,14.497495 v 1.107532 A 0.40245256,0.39497276 0 0 0 9.5062033,15.98665 L 20.974693,12.983584 a 0.45971828,0.45117415 0 0 0 0.306497,-0.607905 z"/>
  <path style="fill:#ffffff;opacity:0.1" d="M 15.802734 4.0019531 A 3.7782871 3.7080656 0 0 0 12.611328 5.5292969 L 12.570312 5.5859375 A 13.58004 13.327648 0 0 0 11.53125 7.2265625 L 10.199219 9.7226562 A 10.477141 10.282417 0 0 0 9 14.498047 L 9 15.498047 A 10.477141 10.282417 0 0 1 10.199219 10.722656 L 11.53125 8.2265625 A 13.58004 13.327648 0 0 1 12.570312 6.5859375 L 12.611328 6.5292969 A 3.7782871 3.7080656 0 0 1 15.802734 5.0019531 L 18.132812 5.0820312 A 5.7497977 5.6429347 0 0 1 21.746094 6.5019531 L 22.136719 6.84375 L 22.876953 6.7832031 A 0.13384879 0.13136113 0 0 0 22.955078 6.5546875 L 21.746094 5.5019531 A 5.7497977 5.6429347 0 0 0 18.132812 4.0820312 L 15.802734 4.0019531 z M 19.554688 8.265625 A 0.72159645 0.70818518 0 0 0 19.4375 8.9863281 L 21.095703 12.931641 A 0.45971828 0.45117415 0 0 0 21.28125 12.375 L 19.554688 8.265625 z"/>
 </g>
 <path style="fill:#e4e4e4" d="m 7.005068,7.3194655 0.5161991,4.7050075 a 1.1094056,1.0929759 0 0 0 1.5381528,0.887926 l 4.4025581,-1.849591 a 4.4469909,4.3811332 0 0 1 1.018194,-0.292316 l 1.689774,-0.275543 a 31.567696,31.100195 0 0 1 1.056478,-0.154227 L 22.718349,9.6322866 A 0.3236711,0.3188777 0 0 0 22.941382,9.1330903 L 20.866833,6.2169463 A 0.51684565,0.50919144 0 0 0 20.133231,6.1020238 l -3.77975,2.7963705 A 0.84820166,0.83564024 0 0 1 15.995375,9.0524328 L 15.081457,9.2155783 A 1.0800517,1.0640567 0 0 1 14.453115,9.1421711 L 8.2282875,6.4378943 A 0.87517412,0.86221326 0 0 0 7.005068,7.3194655 Z"/>
 <path style="fill:#ffffff;opacity:0.2" d="M 20.525391 6.0058594 A 0.51684565 0.50919144 0 0 0 20.132812 6.1015625 L 16.353516 8.8984375 A 0.84820166 0.83564024 0 0 1 15.996094 9.0527344 L 15.082031 9.2148438 A 1.0800517 1.0640567 0 0 1 14.453125 9.1425781 L 8.2285156 6.4375 A 0.87517412 0.86221326 0 0 0 7.0058594 7.3203125 L 7.0722656 7.9179688 A 0.87517412 0.86221326 0 0 1 8.2285156 7.4375 L 14.453125 10.142578 A 1.0800517 1.0640567 0 0 0 15.082031 10.214844 L 15.996094 10.052734 A 0.84820166 0.83564024 0 0 0 16.353516 9.8984375 L 20.132812 7.1015625 A 0.51684565 0.50919144 0 0 1 20.867188 7.2167969 L 22.597656 9.6484375 L 22.71875 9.6328125 A 0.3236711 0.3188777 0 0 0 22.941406 9.1328125 L 20.867188 6.2167969 A 0.51684565 0.50919144 0 0 0 20.525391 6.0058594 z"/>
 <g>
  <ellipse style="opacity:0.2" cx="10.566" cy="19.952" rx="12.443" ry="5.017" transform="matrix(0.95703498,-0.2899725,0.29509117,0.9554691,0,0)"/>
  <ellipse style="fill:#4f4f4f" cx="10.861" cy="18.995" rx="12.443" ry="5.017" transform="matrix(0.95703498,-0.2899725,0.29509117,0.9554691,0,0)"/>
  <path style="fill:#ffffff;opacity:0.1" transform="matrix(0.95703498,-0.2899725,0.29509117,0.9554691,0,0)" d="M 18.435677 15.014446 A 12.442923 5.0173368 1.8674235e-15 0 0 10.861114 13.978951 A 12.442923 5.0173368 1.8674235e-15 0 0 -1.5618081 18.871875 A 12.442923 5.0173368 -180 0 1 10.566019 14.936 A 12.442923 5.0173368 -180 0 1 23.008815 19.953028 A 12.442923 5.0173368 -180 0 1 22.9893 20.075887 A 12.442923 5.0173368 1.8674235e-15 0 0 23.30391 18.995979 A 12.442923 5.0173368 1.8674235e-15 0 0 18.435677 15.014446 z"/>
 </g>
 <g>
  <path style="opacity:0.2" d="m 9.4336236,17.571579 0.13392,3.270324 A 3.6178465,3.7788034 0 0 1 8.5784268,23.60329 l -1.5097054,1.663192 a 0.25052219,0.26166786 0 0 0 0.1651556,0.441124 l 4.083038,0.28407 a 3.6062234,3.7666632 0 0 0 2.496992,-0.820847 l 0.103822,-0.08707 a 4.8491266,5.064863 0 0 1 2.294287,-1.05547 l 1.511122,-0.244063 a 2.4188087,2.5264208 0 0 1 1.681755,0.374362 l 1.350564,0.910909 a 0.60524583,0.63217305 0 0 0 0.791295,-0.123891 5.5859117,5.8344271 0 0 0 1.28729,-3.499955 l 0.135431,-3.097621 a 29.309397,30.613364 0 0 0 -0.06668,-3.888101 l -0.06193,-0.792075 a 0.5962064,0.62273144 0 0 0 -0.576294,-0.571769 l -2.824432,-0.08877 a 15.47962,16.168304 0 0 0 -4.616302,0.584776 l -2.39874,0.697355 c -0.718397,0.208852 -1.830945,0.688284 -2.424906,1.159057 -0.4073178,0.322841 -0.5984344,1.344901 -0.5665695,2.12307 z"/>
  <path style="fill:#ffe300" d="m 9.4336236,16.571574 0.13392,3.270324 a 3.6178465,3.7788034 0 0 1 -0.9891168,2.761387 l -1.5097054,1.663192 a 0.25052219,0.26166786 0 0 0 0.1651556,0.441124 l 4.083038,0.28407 a 3.6062234,3.7666632 0 0 0 2.496992,-0.820847 l 0.103822,-0.08707 a 4.8491266,5.064863 0 0 1 2.294287,-1.05547 l 1.511122,-0.244063 a 2.4188087,2.5264208 0 0 1 1.681755,0.374362 l 1.350564,0.910909 a 0.60524583,0.63217305 0 0 0 0.791295,-0.123891 5.5859117,5.8344271 0 0 0 1.28729,-3.499955 l 0.135431,-3.097621 a 29.309397,30.613364 0 0 0 -0.06668,-3.888101 l -0.06193,-0.792075 A 0.5962064,0.62273144 0 0 0 22.264569,12.09608 l -2.824432,-0.08877 a 15.47962,16.168304 0 0 0 -4.616302,0.584776 l -2.39874,0.697355 c -0.718397,0.208852 -1.830945,0.688284 -2.424906,1.159057 -0.4073178,0.322841 -0.5984344,1.344901 -0.5665695,2.12307 z"/>
  <path style="opacity:0.2;fill:#ffffff" d="m 19.440007,12.007812 a 15.47962,16.168304 0 0 0 -4.615234,0.583985 l -2.398438,0.697265 c -0.718396,0.208852 -1.831821,0.689384 -2.425781,1.160157 -0.4073171,0.32284 -0.5982708,1.344878 -0.5664059,2.123047 l 0.015625,0.40039 c 0.057798,-0.636049 0.2427375,-1.279281 0.5507809,-1.523437 0.59396,-0.470773 1.707385,-0.951305 2.425781,-1.160157 l 2.398438,-0.697265 a 15.47962,16.168304 0 0 1 4.615234,-0.583985 l 2.824219,0.08789 a 0.5962064,0.62273144 0 0 1 0.578125,0.572266 l 0.06055,0.791015 a 29.309397,30.613364 0 0 1 0.09375,1.94336 29.309397,30.613364 0 0 0 -0.09375,-2.94336 l -0.06055,-0.791015 A 0.5962064,0.62273144 0 0 0 22.264226,12.095703 Z M 9.5513355,20.40625 a 3.6178465,3.7788034 0 0 1 -0.9726562,2.197266 l -1.5097656,1.662109 a 0.25052219,0.26166786 0 0 0 0.1660156,0.441406 l 0.3203125,0.02148 1.0234375,-1.125 a 3.6178465,3.7788034 0 0 0 0.9902344,-2.761719 z"/>
 </g>
 <g>
  <path style="opacity:0.2" d="m 9,28.999993 c 0.070892,-0.296656 1.19839,-1.347077 2.277667,-2.298095 1.08898,-0.959565 3.151274,-2.035346 4.573667,-2.436891 l 0.609296,-0.172006 a 2.3678317,2.2557626 0 0 1 1.353856,0.0023 l 0.907772,0.259744 a 5.0153241,4.7779495 0 0 1 2.984236,2.330477 L 23,28.999993 Z"/>
  <path style="fill:#e4e4e4" d="m 9,27.999973 c 0.070892,-0.296656 1.19839,-1.347077 2.277667,-2.298095 1.08898,-0.959565 3.151274,-2.035346 4.573667,-2.436891 l 0.609296,-0.172006 a 2.3678317,2.2557626 0 0 1 1.353856,0.0023 l 0.907772,0.259744 a 5.0153241,4.7779495 0 0 1 2.984236,2.330477 L 23,27.999973 Z"/>
  <path style="fill:#ffffff;opacity:0.2" d="M 16.910156 23.009766 A 2.3678317 2.2557626 0 0 0 16.460938 23.09375 L 15.851562 23.265625 C 14.429171 23.66717 12.366323 24.741608 11.277344 25.701172 C 10.198068 26.652189 9.0708919 27.703344 9 28 L 9.859375 28 C 10.270304 27.601475 10.77715 27.141924 11.277344 26.701172 C 12.366323 25.741608 14.429171 24.66717 15.851562 24.265625 L 16.460938 24.09375 A 2.3678317 2.2557626 0 0 1 17.814453 24.095703 L 18.722656 24.355469 A 5.0153241 4.7779495 0 0 1 21.707031 26.685547 L 22.441406 28 L 23 28 L 21.707031 25.685547 A 5.0153241 4.7779495 0 0 0 18.722656 23.355469 L 17.814453 23.095703 A 2.3678317 2.2557626 0 0 0 16.910156 23.009766 z"/>
 </g>
 <g>
  <path style="opacity:0.2" d="m 12.000438,18.062469 0.03398,1.992805 a 3.3427608,3.3428937 0 0 0 1.349862,2.6272 l 0.781978,0.58049 a 3.7403155,3.7404642 0 0 0 4.423223,0.02604 l 1.091362,-0.790392 a 3.1905637,3.1906905 0 0 0 1.319039,-2.611747 l -0.01656,-1.908187 A 3.0044986,3.0046181 0 0 0 17.950968,15.00013 l -2.995316,0.02798 a 2.9835075,2.9836261 0 0 0 -2.955218,3.034366 z"/>
  <path style="fill:#ffeedb" d="m 12.000438,17.062124 0.03398,1.992805 a 3.3427608,3.3428937 0 0 0 1.349862,2.6272 l 0.781978,0.58049 a 3.7403155,3.7404642 0 0 0 4.423223,0.02604 l 1.091362,-0.790392 a 3.1905637,3.1906905 0 0 0 1.319039,-2.611747 l -0.01656,-1.908187 a 3.0044986,3.0046181 0 0 0 -3.032354,-2.978548 l -2.995316,0.02798 a 2.9835075,2.9836261 0 0 0 -2.955218,3.034366 z"/>
  <path style="fill:#ffffff;opacity:0.2" d="M 17.951172 14 L 14.955078 14.027344 A 2.9835075 2.9836261 0 0 0 12 17.0625 L 12.013672 17.863281 A 2.9835075 2.9836261 0 0 1 14.955078 15.027344 L 17.951172 15 A 3.0044986 3.0046181 0 0 1 20.982422 17.978516 L 20.992188 19.128906 A 3.1905637 3.1906905 0 0 0 21 18.886719 L 20.982422 16.978516 A 3.0044986 3.0046181 0 0 0 17.951172 14 z"/>
 </g>
</svg>

<svg xmlns="http://www.w3.org/2000/svg" width="32" height="32" version="1.1">
 <path style="opacity:0.2" d="M 4.625,3 C 3.1858,3 2,4.1858 2,5.625 V 28.375 C 2,29.814 3.1858,31 4.625,31 H 27.375 C 28.814,31 30,29.814 30,28.375 V 5.625 C 30,4.1858 28.814,3 27.375,3 Z M 4.863,5.0063 H 27.137 C 27.626,5.0063 27.994,5.3737 27.994,5.863 V 28.137 C 27.994,28.626 27.626,28.994 27.137,28.994 H 4.863 C 4.3737,28.994 4.0063,28.626 4.0063,28.137 V 5.863 C 4.0063,5.3737 4.3737,5.0063 4.863,5.0063 Z"/>
 <path style="fill:#d35cc6" d="M 4.625,2 C 3.1858,2 2,3.1858 2,4.625 V 27.375 C 2,28.814 3.1858,30 4.625,30 H 27.375 C 28.814,30 30,28.814 30,27.375 V 4.625 C 30,3.1858 28.814,2 27.375,2 Z M 4.863,4.0063 H 27.137 C 27.626,4.0063 27.994,4.3737 27.994,4.863 V 27.137 C 27.994,27.626 27.626,27.994 27.137,27.994 H 4.863 C 4.3737,27.994 4.0063,27.626 4.0063,27.137 V 4.863 C 4.0063,4.3737 4.3737,4.0063 4.863,4.0063 Z"/>
 <path style="opacity:0.1;fill:#ffffff" d="M 4.625,2 C 3.1858,2 2,3.1858 2,4.625 V 5.625 C 2,4.1858 3.1858,3 4.625,3 H 27.375 C 28.814,3 30,4.1858 30,5.625 V 4.625 C 30,3.1858 28.814,2 27.375,2 Z M 4.0059,27.137 V 28.137 C 4.0059,28.626 4.374,28.994 4.8633,28.994 H 27.137 C 27.626,28.994 27.994,28.626 27.994,28.137 V 27.137 C 27.994,27.626 27.626,27.994 27.137,27.994 H 4.8633 C 4.374,27.994 4.0059,27.626 4.0059,27.137 Z"/>
 <path style="opacity:0.2" d="M 21.281,13.376 19.437,8.9867 A 0.7216,0.70819 0 0 1 20.045,8.0109 L 22.877,7.783 A 0.13385,0.13136 0 0 0 22.955,7.5538 L 21.746,6.5014 A 5.7498,5.6429 0 0 0 18.133,5.0829 L 15.802,5.0023 A 3.7783,3.7081 0 0 0 12.612,6.5293 L 12.569,6.5867 A 13.58,13.328 0 0 0 11.532,8.2275 L 10.199,10.722 A 10.477,10.282 0 0 0 9,15.497 V 16.605 A 0.40245,0.39497 0 0 0 9.5062,16.987 L 20.975,13.984 A 0.45972,0.45117 0 0 0 21.281,13.376 Z"/>
 <path style="fill:#4f4f4f" d="M 21.281,12.376 19.437,7.9867 A 0.7216,0.70819 0 0 1 20.045,7.0109 L 22.877,6.783 A 0.13385,0.13136 0 0 0 22.955,6.5538 L 21.746,5.5014 A 5.7498,5.6429 0 0 0 18.133,4.0829 L 15.802,4.0023 A 3.7783,3.7081 0 0 0 12.612,5.5293 L 12.569,5.5867 A 13.58,13.328 0 0 0 11.532,7.2275 L 10.199,9.7218 A 10.477,10.282 0 0 0 9,14.497 V 15.605 A 0.40245,0.39497 0 0 0 9.5062,15.987 L 20.975,12.984 A 0.45972,0.45117 0 0 0 21.281,12.376 Z"/>
 <path style="opacity:0.1;fill:#ffffff" d="M 15.803,4.002 C 14.546,3.9581 13.35,4.5306 12.611,5.5293 L 12.57,5.5859 C 12.184,6.1074 11.836,6.6558 11.531,7.2266 L 10.199,9.7227 C 9.4116,11.196 9.0002,12.834 9,14.498 V 15.498 C 9.0002,13.835 9.4116,12.196 10.199,10.723 L 11.531,8.2266 C 11.836,7.6558 12.184,7.1074 12.57,6.5859 L 12.611,6.5293 C 13.35,5.5306 14.546,4.9581 15.803,5.002 L 18.133,5.082 C 19.469,5.1288 20.746,5.6309 21.746,6.502 L 22.137,6.8437 22.877,6.7832 C 22.994,6.7733 23.042,6.6316 22.955,6.5547 L 21.746,5.502 C 20.746,4.6309 19.469,4.1288 18.133,4.082 Z"/>
 <path style="fill:#e4e4e4" d="M 7.0051,7.3195 7.5213,12.024 A 1.1094,1.093 0 0 0 9.0594,12.912 L 13.462,11.063 A 4.447,4.3811 0 0 1 14.48,10.77 L 16.17,10.495 A 31.568,31.1 0 0 1 17.226,10.341 L 22.718,9.6323 A 0.32367,0.31888 0 0 0 22.941,9.1331 L 20.867,6.2169 A 0.51685,0.50919 0 0 0 20.133,6.102 L 16.353,8.8984 A 0.8482,0.83564 0 0 1 15.995,9.0524 L 15.081,9.2156 A 1.0801,1.0641 0 0 1 14.453,9.1422 L 8.2283,6.4379 A 0.87517,0.86221 0 0 0 7.0051,7.3195 Z"/>
 <path style="opacity:0.2;fill:#ffffff" d="M 20.525,6.0059 A 0.51685,0.50919 0 0 0 20.133,6.1016 L 16.354,8.8984 A 0.8482,0.83564 0 0 1 15.996,9.0527 L 15.082,9.2148 A 1.0801,1.0641 0 0 1 14.453,9.1426 L 8.2285,6.4375 A 0.87517,0.86221 0 0 0 7.0059,7.3203 L 7.0723,7.918 A 0.87517,0.86221 0 0 1 8.2285,7.4375 L 14.453,10.143 A 1.0801,1.0641 0 0 0 15.082,10.215 L 15.996,10.053 A 0.8482,0.83564 0 0 0 16.354,9.8984 L 20.133,7.1016 A 0.51685,0.50919 0 0 1 20.867,7.2168 L 22.598,9.6484 22.719,9.6328 A 0.32367,0.31888 0 0 0 22.941,9.1328 L 20.867,6.2168 A 0.51685,0.50919 0 0 0 20.525,6.0059 Z"/>
 <g transform="matrix(0.95704,-0.28997,0.29509,0.95547,0,0)">
  <ellipse style="opacity:0.2" cx="10.566" cy="19.952" rx="12.443" ry="5.017"/>
  <ellipse style="fill:#4f4f4f" cx="10.861" cy="18.995" rx="12.443" ry="5.017"/>
 </g>
 <path style="opacity:0.1;fill:#ffffff" d="M 22.074,8.9995 A 5.0172,12.443 73.203 0 0 14.519,10.207 5.0172,12.443 73.203 0 0 4.0742,18.485 5.0172,12.443 73.203 0 1 14.519,11.207 5.0172,12.443 73.203 0 1 27.908,12.393 5.0172,12.443 73.203 0 1 27.925,12.516 5.0172,12.443 73.203 0 0 27.908,11.393 5.0172,12.443 73.203 0 0 22.074,8.9995 Z"/>
 <path style="opacity:0.2" d="M 9.4336,17.572 9.5675,20.842 A 3.6178,3.7788 0 0 1 8.5784,23.603 L 7.0687,25.266 A 0.25052,0.26167 0 0 0 7.2339,25.708 L 11.317,25.992 A 3.6062,3.7667 0 0 0 13.814,25.171 L 13.918,25.084 A 4.8491,5.0649 0 0 1 16.212,24.028 L 17.723,23.784 A 2.4188,2.5264 0 0 1 19.405,24.159 L 20.755,25.069 A 0.60525,0.63217 0 0 0 21.547,24.946 5.5859,5.8344 0 0 0 22.834,21.446 L 22.969,18.348 A 29.309,30.613 0 0 0 22.903,14.46 L 22.841,13.668 A 0.59621,0.62273 0 0 0 22.265,13.096 L 19.44,13.007 A 15.48,16.168 0 0 0 14.824,13.592 L 12.425,14.289 C 11.707,14.498 10.594,14.978 10,15.449 9.5929,15.771 9.4018,16.793 9.4336,17.572 Z"/>
 <path style="fill:#ffe300" d="M 9.4336,16.572 9.5675,19.842 A 3.6178,3.7788 0 0 1 8.5784,22.603 L 7.0687,24.266 A 0.25052,0.26167 0 0 0 7.2339,24.708 L 11.317,24.992 A 3.6062,3.7667 0 0 0 13.814,24.171 L 13.918,24.084 A 4.8491,5.0649 0 0 1 16.212,23.028 L 17.723,22.784 A 2.4188,2.5264 0 0 1 19.405,23.159 L 20.755,24.069 A 0.60525,0.63217 0 0 0 21.547,23.946 5.5859,5.8344 0 0 0 22.834,20.446 L 22.969,17.348 A 29.309,30.613 0 0 0 22.903,13.46 L 22.841,12.668 A 0.59621,0.62273 0 0 0 22.265,12.096 L 19.44,12.007 A 15.48,16.168 0 0 0 14.824,12.592 L 12.425,13.289 C 11.707,13.498 10.594,13.978 10,14.448 9.5929,14.771 9.4018,15.793 9.4336,16.572 Z"/>
 <path style="opacity:0.2;fill:#ffffff" d="M 19.44,12.008 A 15.48,16.168 0 0 0 14.825,12.592 L 12.426,13.289 C 11.708,13.498 10.595,13.978 10.001,14.449 9.5932,14.772 9.4023,15.794 9.4341,16.572 L 9.4498,16.973 C 9.5076,16.337 9.6925,15.693 10.001,15.449 10.595,14.978 11.708,14.498 12.426,14.289 L 14.825,13.592 A 15.48,16.168 0 0 1 19.44,13.008 L 22.264,13.096 A 0.59621,0.62273 0 0 1 22.842,13.668 L 22.903,14.459 A 29.309,30.613 0 0 1 22.997,16.402 29.309,30.613 0 0 0 22.903,13.459 L 22.842,12.668 A 0.59621,0.62273 0 0 0 22.264,12.096 Z M 9.5513,20.406 A 3.6178,3.7788 0 0 1 8.5787,22.604 L 7.0689,24.266 A 0.25052,0.26167 0 0 0 7.2349,24.707 L 7.5552,24.729 8.5787,23.604 A 3.6178,3.7788 0 0 0 9.5689,20.842 Z"/>
 <path style="opacity:0.2" d="M 9,29 C 9.0709,28.703 10.198,27.653 11.278,26.702 12.367,25.742 14.429,24.667 15.851,24.265 L 16.461,24.093 A 2.3678,2.2558 0 0 1 17.814,24.095 L 18.722,24.355 A 5.0153,4.7779 0 0 1 21.706,26.686 L 23,29 Z"/>
 <path style="fill:#e4e4e4" d="M 9,28 C 9.0709,27.703 10.198,26.653 11.278,25.702 12.367,24.742 14.429,23.667 15.851,23.265 L 16.461,23.093 A 2.3678,2.2558 0 0 1 17.814,23.095 L 18.722,23.355 A 5.0153,4.7779 0 0 1 21.706,25.686 L 23,28 Z"/>
 <path style="opacity:0.2;fill:#ffffff" d="M 16.91,23.01 A 2.3678,2.2558 0 0 0 16.461,23.094 L 15.852,23.266 C 14.429,23.667 12.366,24.742 11.277,25.701 10.198,26.652 9.0709,27.703 9,28 H 9.8594 C 10.27,27.601 10.777,27.142 11.277,26.701 12.366,25.742 14.429,24.667 15.852,24.266 L 16.461,24.094 A 2.3678,2.2558 0 0 1 17.814,24.096 L 18.723,24.355 A 5.0153,4.7779 0 0 1 21.707,26.686 L 22.441,28 H 23 L 21.707,25.686 A 5.0153,4.7779 0 0 0 18.723,23.355 L 17.814,23.096 A 2.3678,2.2558 0 0 0 16.91,23.01 Z"/>
 <path style="opacity:0.2" d="M 12,18.062 12.034,20.055 A 3.3428,3.3429 0 0 0 13.384,22.682 L 14.166,23.263 A 3.7403,3.7405 0 0 0 18.589,23.289 L 19.681,22.499 A 3.1906,3.1907 0 0 0 21,19.887 L 20.983,17.979 A 3.0045,3.0046 0 0 0 17.951,15 L 14.956,15.028 A 2.9835,2.9836 0 0 0 12,18.062 Z"/>
 <path style="fill:#ffeedb" d="M 12,17.062 12.034,19.055 A 3.3428,3.3429 0 0 0 13.384,21.682 L 14.166,22.263 A 3.7403,3.7405 0 0 0 18.589,22.289 L 19.681,21.498 A 3.1906,3.1907 0 0 0 21,18.887 L 20.983,16.978 A 3.0045,3.0046 0 0 0 17.951,14 L 14.956,14.028 A 2.9835,2.9836 0 0 0 12,17.062 Z"/>
</svg>
